X: 1
T: Polska fr\aan Ore
C: Timas Hans
N: Learned from Bengt Jonsson (July 1989)
Z: John Chambers <jc@trillian.mit.edu>
M: 3/4
L: 1/8
K: Dm
|: "Dm"{^C}D>F A2 d>(f | "A7"e/f/)e/^c/ "Dm"d3 (e | f/e/)f/g/  a2 f>g | ~fe/d/ "A7"e4 |
|  "Dm"{^C}D>F A2 d>(f | "A7"e/f/)e/^c/ "Dm"d3 (e | f/e/)f/a/  (g/a/)g/e/ f(e/d/) | (e^c) d4 :|
|: "Dm"{^c}d>e f2 a2 | {a}(g/f/)e/d/ e2 g2 | (f/g/)f/e/ dA f2 | f(e/d/) (^c/d/)e/c/ A2 |
|  "Dm"{^c}d>e f2 a2 | {a}(g/f/)e/d/ e2 g2 | (f/g/)f/e/ d^c d>f | (a^c) d4 :|
|: "A7"A,e/e/ eA, a2 | (g/f/)e/d/ eA g2 | (f/e/)d/^c/ dA f2 | f(e/d/) (^c/d/)e/c/ A2 |
|  "A7"A,e/e/ eA, a2 | (g/f/)e/d/ eA g2 | (f/g/)f/e/ (d^c) d>f | (a^c) d4 :|
